X:7
T:Bill Harte's
Z: id:dc-jig-4
M:6/8
L:1/8
K:D Mixolydian
DED A2A|BAG ABA|DED A2A|BAG EGE|!
DED A2A|BAG ABc|d2B c2A|BAG E2D:|!
d2B c2A|BAG ABc|d2B c2A|BAG E2D|!
d2B c2A|BAG ABc|ded cBA|BAG E2D:|!

